!!!COM:	Busnoys, Antoine
!!!CDT:	~1430///-1492/11/06
!!!OPR:	Missa L'homme arm&eacute;
!!!ONM:	3
!!!OTL:	Credo
!!!AGN:	Mass; Credo
!!!SCT:	Bus1001c
!!!SCA:	Bus1001c
!!!voices:	4
**kern	**kern	**kern	**kern
*staff4	*staff3	*staff2	*staff1
*Ivox	*Ivox	*Ivox	*Ivox
*I"Contratenor2	*I"Tenor	*I"Contratenor1	*I"Superius
*I'Ct2	*I'T	*I'Ct1	*I'S
*>[A,B,C]	*>[A,B,C]	*>[A,B,C]	*>[A,B,C]
*>A	*>A	*>A	*>A
*clefF4	*clefGv2	*clefGv2	*clefG2
*k[b-]	*k[b-]	*k[b-]	*k[b-]
*M3/1	*M3/1	*M3/1	*M3/1
*met(O)	*met(O.)	*met(O)	*met(O)
*MM252	*MM252	*MM252	*MM252
!!primary-mensuration: met(O)
!!section: Patrem omnipotentem
!!!OMD: Patrem omnipotentem
*	*rscale:1/2	*	*
=1-	=1-	=1-	=1-
0.r	0.r	0G	[0.g
.	.	1G	.
=2	=2-	=2	=2
0.r	0.r	0c	1g]
.	.	.	1.a
.	.	1c	.
.	.	.	2g
=3	=3-	=3	=3
0.r	0.r	1B-	1g
.	.	1.A	1.cc
.	.	2G	2b-
=4	=4	=4	=4
0.r	0.r	1G	2.b-
.	.	.	4a
.	.	2d	2b-
.	.	2e	1cc
.	.	1f	.
.	.	.	2a
=5	=5-	=5	=5
0.r	0.r	1.g	2g
.	.	.	2.b-
.	.	.	4a
.	.	2f	1a
.	.	1d	.
.	.	.	2d
=6	=6-	=6	=6
1r	0.r	2c	2e
.	.	1d	2f
1r	.	.	2d
.	.	2B-	1g
1c	.	1A	.
.	.	.	2f#i
=7	=7	=7	=7
2.B-	0.r	0G	1g
4G	.	.	.
2B-	.	.	1r
2d	.	.	.
2c	.	1r	1cc
4B-	.	.	.
4A	.	.	.
=8	=8-	=8	=8
2G	0.r	0.r	2b-
2B-	.	.	2dd
2A	.	.	2cc
2c	.	.	4b-
.	.	.	4a
2B-	.	.	2g
4A	.	.	2b-
4G	.	.	.
=9	=9-	=9	=9
2.F	0.r	1r	2a
.	.	.	2cc
4E	.	.	.
2G	.	1r	2b-
2B-	.	.	4a
.	.	.	4g
1A	.	1c	2.f#i
.	.	.	4e
=10	=10	=10	=10
1G	0.r	2B-	1g
.	.	2G	.
2F	.	2A	1r
2D	.	2B-	.
1E	.	4c	1r
.	.	4B-	.
.	.	4A	.
.	.	4G	.
=11	=11-	=11	=11
1D	0.r	2.F	0.r
.	.	4G	.
2r	.	2A	.
1G	.	1B-	.
2E	.	2c	.
=12	=12-	=12	=12
2F	0.r	2A	0.r
2G	.	2G	.
2A	.	2c	.
1G	.	2B-	.
.	.	1A	.
2F#i	.	.	.
=13	=13	=13	=13
2G	0.r	1G	0.r
2.B-	.	.	.
.	.	2r	.
4A	.	.	.
2B-	.	2d	.
2c	.	2e	.
2A	.	2f	.
=14	=14-	=14	=14
2G	0.r	2g	0.r
2.B-	.	2.d	.
4c	.	4e	.
2.d	.	2.f	.
4e	.	4e	.
2f	.	2d	.
=15	=15-	=15	=15
2e	0.r	2c	0.r
2.d	.	4B-	.
.	.	4A	.
.	.	2G	.
4c	.	.	.
2B-	.	1g	.
1A	.	.	.
.	.	2f#i	.
=16	=16	=16	=16
2G	0.r	2g	0.r
2.B-	.	2.d	.
4A	.	4c	.
2G	.	2B-	.
2F	.	2A	.
2B-	.	2G	.
=17	=17-	=17	=17
2c	0.r	2F	1r
2.A	.	2.c	.
.	.	.	1r
4G	.	4B-	.
4F#i	.	4A	.
4E	.	4G	.
1F#i	.	1A	1cc
=18	=18-	=18	=18
0G	0.r	1G	1.b-
.	.	1r	.
.	.	.	2g
1r	.	1g	2.b-
.	.	.	4cc
=19	=19	=19	=19
0.r	0.r	2a	1a
.	.	1f	.
.	.	.	2dd
.	.	2d	1dd
.	.	1e	.
.	.	.	2cc
=20	=20-	=20	=20
0.r	0.r	1d	2.dd
.	.	.	4cc
.	.	2r	2a
.	.	2G	1b-
.	.	2B-	.
.	.	2c	4a
.	.	.	4g
=21	=21-	=21	=21
0.r	0.r	2.d	2.f
.	.	4c	4e
.	.	2A	2f
.	.	1B-	2g
.	.	.	2f
.	.	4A	2b-
.	.	4G	.
=22	=22	=22	=22
0.r	0.r	2F	2cc
.	.	1B-	2.dd
.	.	.	4b-
.	.	2d	1b-
.	.	1c	.
.	.	.	2a
=23	=23-	=23	=23
0.r	0.r	1B-	2b-
.	.	.	4a
.	.	.	4g
.	.	2A	2f
.	.	2G	1g
.	.	2B-	.
.	.	2c	2e
=24	=24-	=24	=24
0.r	0.r	2.d	2.d
.	.	4c	4e
.	.	2B-	2f
.	.	4A	2g
.	.	4G	.
.	.	2.F	2a
.	.	.	2cc
.	.	4E	.
=25	=25	=25	=25
0.r	0.r	2G	2.b-
.	.	4A	.
.	.	4B-	4g
.	.	4c	2a
.	.	4B-	.
.	.	4A	1g
.	.	4G	.
.	.	1A	.
.	.	.	2f#i
=26	=26-	=26	=26
1G	0.r	2r	1g
.	.	1G	.
1.G	.	.	1r
.	.	1B-	.
.	.	.	1g
2E	.	2c	.
=27	=27-	=27	=27
2F	0.r	2A	2a
2.G	.	2.d	2.b-
8FL	.	4c	4a
8EJ	.	.	.
2F	.	2A	1a
1G	.	1B-	.
.	.	.	2g
=28	=28	=28	=28
1.F	0D	0A	0.a
2D	.	.	.
1D	1D	[1d	.
=29	=29-	=29	=29
1r	0G	1d]	1.b-
1r	.	1.e-i	.
.	.	.	2g
1C	1G	.	1g
.	.	[2d	.
=30	=30-	=30	=30
1F	1F	1.d]	1a
0G	0E	.	2g
.	.	2B-	1g
.	.	2c	.
.	.	4B-	2e
.	.	4c	.
=31	=31	=31	=31
1A	1D	1.d	1f
2B-	0r	.	2g
2A	.	2c	2.a
1c	.	1A	.
.	.	.	4g
.	.	.	2e
=32	=32-	=32	=32
1d	0.r	2r	2f
.	.	2.B-	1d
1G	.	.	.
.	.	4c	.
.	.	1d	1g
1A	.	.	.
.	.	2c	2f
=33	=33-	=33	=33
2G	0.r	2B-	2g
2F	.	1A	1a
1D	.	.	.
.	.	1d	2b-
1E	.	.	4cc
.	.	.	4b-
.	.	2c	4a
.	.	.	4g
=34	=34	=34	=34
1.D	1A	1.d	1f
.	1A	.	1r
2.F	.	2c	.
.	1D	2d	1a
4G	.	.	.
2A	.	2f	.
=35	=35-	=35	=35
2G	1r	2e	2b-
2E	.	2c	2cc
2F	1A	2d	1a
1D	.	2f	.
.	1A	2.e	2r
2C	.	.	[2a
.	.	4d	.
=36	=36-	=36	=36
2D	1A	1.d	4a]
.	.	.	4g
4E	.	.	2.f
4F	.	.	.
4G	0G	.	.
4F	.	.	4e
4E	.	2c#i	2f
4D	.	.	.
1E	.	2c#i	2g
.	.	2Bni	2e
=37	=37	=37	=37
1D	1F	4d	2f
.	.	4c	.
.	.	4B-	4e
.	.	4A	4f
1r	0E	2B-	4g
.	.	.	4f
.	.	2.c	4e
.	.	.	4d
1G	.	.	2.c#i
.	.	4B-	.
.	.	4A	.
.	.	4G	4Bni
=38	=38-	=38	=38
!	!LO:N:vis=0.	!	!
2A	[y0.D	1F	0d
2B-	.	.	.
2A	.	1r	.
1d	.	.	.
.	.	1A	1r
2c	.	.	.
=39	=39-	=39	=39
2.B-	0.D]yy	2B-	2.f
.	.	1d	.
4A	.	.	4g
1A	.	.	1a
.	.	2c	.
1d	.	2.B-	1b-
.	.	4A	.
=40	=40	=40	=40
2c	0.r	1A	1cc
2A	.	.	.
2.B-	.	1d	2b-
.	.	.	1g
4c	.	.	.
1A	.	2c	.
.	.	2A	2f
=41	=41-	=41	=41
1G	0.r	2.B-	2g
.	.	.	2d
.	.	4c	.
2F	.	2A	1f
2D	.	1d	.
1A	.	.	1e
.	.	2c#i	.
=42	=42-	=42	=42
2D	0.r	1d	2d
2d	.	.	2f
2e	.	2r	2g
2f	.	2d	1a
1d	.	2f	.
.	.	2g	2b-
=43	=43	=43	=43
0.r	1A	2.a	2cc
.	.	.	1a
.	.	4g	.
.	1A	2.f	.
.	.	.	1dd
.	.	8eL	.
.	.	8dJ	.
.	1A	1e	.
.	.	.	2cc#i
=44	=44-	=44	=44
1A	0.D	1d	1dd
1A	.	2r	2dd
.	.	1d	1dd
1A	.	.	.
.	.	2e	4cc
.	.	.	4b-
=45	=45-	=45	=45
1D	0.r	2f	1a
.	.	2.d	.
1G	.	.	2b-
.	.	4c	.
.	.	2B-	2dd
2A	.	2A	2cc
2B-	.	2G	[2b-
=46	=46	=46	=46
2G	0.r	1d	4b-]
.	.	.	4a
1F	.	.	2.a
.	.	2c	.
.	.	.	4g
2G	.	2B-	1g
1D	.	1A	.
.	.	.	2f#i
=47	=47-	=47	=47
2r	0d	2G	1g
1G	.	1B-	.
.	.	.	1r
2F	.	2A	.
2G	1d	2.B-	1b-
2B-	.	.	.
.	.	4A	.
=48	=48-	=48	=48
2.A	0c	1F	2.cc
4G	.	.	4b-
2F	.	1r	2a
4E	.	.	1g
4D	.	.	.
1E	1c	1G	.
.	.	.	4f
.	.	.	4e
=49	=49	=49	=49
1D	0d	2A	2f
.	.	1F	1a
1r	.	.	.
.	.	2G	2g
2D	1d	1A	2f
2E	.	.	4e
.	.	.	4d
=50	=50-	=50	=50
1.F	0.Al	1r	2c
.	.	.	2.f
.	.	1r	.
.	.	.	4g
2D	.	.	2.a
1D	.	1d	.
.	.	.	4g
.	.	.	2f
=51	=51-	=51	=51
!	!	!	!
0.r	0.r	2e	2e
.	.	1f	2.a
.	.	.	4g
.	.	1d	2f
.	.	.	1e
.	.	2c#i	.
=52	=52	=52	=52
1D	0.r	1d	1d
1E-i	.	2B-	2r
.	.	2.c	2g
1F	.	.	2a
.	.	4B-	.
.	.	2A	2cc
=53	=53-	=53	=53
1G	0.r	2.G	2b-
.	.	.	1dd
.	.	4A	.
1r	.	2B-	.
.	.	2c	2cc
1r	.	2d	2b-
.	.	4c	4a
.	.	4B-	4g
=54	=54-	=54	=54
2.D	0.r	2A	2f
.	.	2d	2b-
4E	.	.	.
2F	.	2c	4a
.	.	.	4g
2G	.	2B-	1g
1D	.	2.A	.
.	.	.	2f#i
.	.	4G	.
=55	=55	=55	=55
0.Gl	0.r	0.Gl	0.gl
!!LO:LB:i:g=z
*	*rscale:1	*	*
=56||	=56||	=56||	=56||
*>B	*>B	*>B	*>B
*clefF4	*clefGv2	*clefGv2	*clefG2
*k[b-]	*k[b-]	*k[b-]	*k[b-]
*M2/1	*M2/1	*M2/1	*M2/1
*met(O2)	*met(O.)	*met(O2)	*met(O2)
*MM336	*MM336	*MM336	*MM336
!!primary-mensuration: met(O2)
!!section: Et incarnatus est
!!!OMD: Et incarnatus est
*	*rscale:1/4	*	*
!	!LO:N:vis=1.	!	!
0r	0r	1.G	0r
.	.	2E	.
=57.	=57-	=57.	=57.
0r	0ryy	2.F	1r
.	.	4G	.
.	.	1B-	[1g
=58.	=58-	=58.	=58.
0r	0ryy	2A	2g]
.	.	1A	2e
.	.	.	2.f
.	.	2G	.
.	.	.	4g
=59	=59-	=59	=59
!	!LO:N:vis=1.	!	!
0r	0r	1G	1b-
.	.	[1c	2a
.	.	.	[2a
=60.	=60-	=60.	=60.
0r	0ryy	2c]	2a]
.	.	2B-	2g
.	.	1B-	1g
=61.	=61-	=61.	=61.
0r	0ryy	1.A	1.cc
.	.	2G	2b-
=62	=62-	=62	=62
!	!LO:N:vis=1.	!	!
0r	0r	1G	1b-
.	.	1F	[1a
=63.	=63-	=63.	=63.
0r	0ryy	1G	2a]
.	.	.	2g
.	.	1B-	[1g
=64.	=64-	=64.	=64.
0r	0ryy	0A	2g]
.	.	.	2f#i
.	.	.	2f#i
.	.	.	2e
=65	=65	=65	=65
!	!LO:N:vis=1.	!	!
1.d	0r	0G	1g
.	.	.	1r
2c	.	.	.
=66.	=66-	=66.	=66.
1B-	0ryy	0r	1.dd
1A	.	.	.
.	.	.	2cc
=67.	=67-	=67.	=67.
1G	0ryy	1.d	1b-
1F	.	.	1a
.	.	2c	.
=68	=68-	=68	=68
!	!LO:N:vis=1.	!	!
1G	0r	1B-	1g
1D	.	1A	1f
=69.	=69-	=69.	=69.
0r	0ryy	1G	2g
.	.	.	2b-
.	.	1F	2a
.	.	.	[2cc
=70.	=70-	=70.	=70.
1r	0ryy	2G	4cc]
.	.	.	4b-
.	.	2B-	4a
.	.	.	4g
1D	.	2A	1f
.	.	[2B-	.
=71	=71-	=71	=71
!	!LO:N:vis=1.	!	!
1E	0r	2B-]	1g
.	.	2G	.
1D	.	1F	1a
=72.	=72-	=72.	=72.
2r	0ryy	2.G	1.b-
1G	.	.	.
.	.	4A	.
.	.	2B-	.
[2F	.	[2c	[2a
=73.	=73-	=73.	=73.
2F]	0ryy	4c]	4a]
.	.	4G	4g
2G	.	2B-	1g
1D	.	1A	.
.	.	.	2f#i
=74	=74	=74	=74
!	!LO:N:vis=1	!	!
1G	[y0d	1r	0g
1r	.	1G	.
=75.	=75-	=75.	=75.
1.G	0d]yy	1.B-	1r
.	.	.	1g
4F	.	4A	.
4E	.	4G	.
=76.	=76-	=76.	=76.
2.D	0d	2.F	2a
.	.	.	1a
4E	.	4G	.
2F	.	2A	.
2G	.	2B-	4g
.	.	.	4f
=77	=77-	=77	=77
!	!LO:N:vis=1	!	!
2A	[y0c	1c	1e
1A	.	.	.
.	.	1A	1f
2F	.	.	.
=78.	=78-	=78.	=78.
2E	0c]yy	2r	2g
2F	.	2A	2a
2E	.	2B-	2g
[2A	.	2A	[2cc
=79.	=79-	=79.	=79.
4A]	0c	1F	4cc]
4D	.	.	4b-
2F	.	.	2a
1E	.	1G	2g
.	.	.	4f
.	.	.	4e
=80	=80-	=80	=80
!	!LO:N:vis=1	!	!
2.D	[y0d	1.A	1f
4E	.	.	.
2F	.	.	1d
2G	.	[2B-	.
=81.	=81-	=81.	=81.
2D	0d]yy	2B-]	1r
1G	.	2G	.
.	.	1A	1a
2F#i	.	.	.
=82.	=82-	=82.	=82.
0G	0d	1G	1b-
.	.	2r	1b-
.	.	2d	.
=83	=83	=83	=83
!	!LO:N:vis=1.	!	!
0r	[y0A	2e	1.cc
.	.	1f	.
.	.	4e	2dd
.	.	4d	.
=84.	=84-	=84.	=84.
0r	0A_yy	2c	2ee
.	.	2f	2dd
.	.	2e	2cc
.	.	[2f	[2a
=85.	=85-	=85.	=85.
0r	0A]yy	2f]	2a]
.	.	2d	1dd
.	.	1e	.
.	.	.	2cc#i
=86	=86-	=86	=86
!	!LO:N:vis=1.	!	!
1D	0r	2r	1dd
.	.	1d	.
1F	.	.	1r
.	.	2c	.
=87.	=87-	=87.	=87.
2G	0ryy	4B-	1.dd
.	.	4A	.
2B-	.	2G	.
2A	.	2F	.
2F	.	2A	2cc
=88.	=88-	=88.	=88.
2G	0ryy	2B-	2b-
2E	.	2c	4a
.	.	.	4g
1D	.	1d	2.f#i
.	.	.	4e
=89	=89-	=89	=89
!	!LO:N:vis=1	!	!
2r	0r	1G	2g
1d	.	.	1b-
.	.	2d	.
2c	.	2e	2cc
=90.	=90-	=90.	=90.
2d	0ryy	2f	2a
2.e	.	2g	1g
.	.	2.e	.
4d	.	.	.
2c	.	.	2a
.	.	4f	.
=91.	=91-	=91.	=91.
2B-	0d	2g	2b-
2A	.	1a	2cc
1B-	.	.	2dd
.	.	2g	4cc
.	.	.	4b-
=92	=92	=92	=92
!	!LO:N:vis=1	!	!
1.A	[y0e	1.a	2cc
.	.	.	1cc
[2c	.	4g	4b-
.	.	4f	4a
=93.	=93-	=93.	=93.
2c]	0e]yy	2e	2.g
4B-	.	4d	.
4A	.	4c	4a
2G	.	2B-	2b-
2A	.	2A	2cc
=94.	=94-	=94.	=94.
2B-	0d	2d	2dd
1A	.	2c	2a
.	.	1B-	1b-
2G	.	.	.
=95	=95-	=95	=95
1A	0c	2A	2cc
.	.	2.c	2.a
1F	.	.	.
.	.	4B-	4g
.	.	2A	2a
=96.	=96-	=96.	=96.
!	!LO:N:vis=1	!	!
2r	[y0B-	2G	2b-
1.G	.	2.B-	2.dd
.	.	4A	4cc
.	.	[2G	[2b-
=97.	=97-	=97.	=97.
2E-	0B-]yy	2G]	4b-]
.	.	.	4a
2F	.	2F	1a
1G	.	2.E	.
.	.	.	2g
.	.	4D	.
=98	=98-	=98	=98
!	!LO:N:vis=1.	!	!
1.D	[y0A	1F	1a
.	.	1r	1r
[2F	.	.	.
=99.	=99-	=99.	=99.
4F]	0A_yy	0r	1.f
4E	.	.	.
1D	.	.	.
2C	.	.	2e
=100.	=100-	=100.	=100.
2.D	0A]yy	1.f	1d
4E	.	.	.
[1F	.	.	1c
.	.	2e	.
=101	=101	=101	=101
!	!LO:N:vis=1.	!	!
2F]	0r	1d	1f
2D	.	.	.
1E	.	1c	1g
=102.	=102-	=102.	=102.
1D	0ryy	1f	1a
1r	.	1g	2g
.	.	.	2e
=103.	=103-	=103.	=103.
0r	0ryy	1a	2.f
.	.	.	4g
.	.	2g	2e
.	.	2e	2g
=104	=104-	=104	=104
!	!LO:N:vis=1.	!	!
0r	0r	2.f	2a
.	.	.	2a
.	.	4g	.
.	.	2e	2g
.	.	2g	2e
=105.	=105-	=105.	=105.
0r	0ryy	2a	2.f
.	.	2a	.
.	.	.	4g
.	.	2g	2e
.	.	2e	2g
=106.	=106-	=106.	=106.
0r	0ryy	2.f	2f
.	.	.	1d
.	.	4g	.
.	.	1e	.
.	.	.	2c#i
=107	=107-	=107	=107
!	!LO:N:vis=1.	!	!
1D	0r	1d	1d
1F	.	2c	1r
.	.	2A	.
=108.	=108-	=108.	=108.
1G	0ryy	2.B-	1d
.	.	4c	.
1A	.	1A	1f
=109.	=109-	=109.	=109.
2.B-	0ryy	0r	1g
4c	.	.	.
1A	.	.	1a
=110	=110	=110	=110
!	!LO:N:vis=1.	!	!
2r	0r	0r	2.b-
2d	.	.	.
.	.	.	4cc
2c	.	.	1a
4B-	.	.	.
4A	.	.	.
=111.	=111-	=111.	=111.
2.B-	0ryy	0r	2r
.	.	.	2dd
4c	.	.	.
2A	.	.	2cc
[2A	.	.	4b-
.	.	.	4a
=112.	=112-	=112.	=112.
2A]	0ryy	0r	2.b-
2G	.	.	.
.	.	.	4cc
2F	.	.	2a
4E	.	.	[2a
4D	.	.	.
=113	=113-	=113	=113
!	!LO:N:vis=1.	!	!
1C	0r	0r	2a]
.	.	.	2g
2D	.	.	2f
2F	.	.	4e
.	.	.	4d
=114.	=114-	=114.	=114.
2E	0ryy	0r	2c
2D	.	.	2d
2A	.	.	2f
4G	.	.	[2e
4A	.	.	.
=115.	=115-	=115.	=115.
4B-	0ryy	0r	4e]
4A	.	.	4d
4G	.	.	1d
4F	.	.	.
2.E	.	.	.
.	.	.	2c#i
4D	.	.	.
=116	=116-	=116	=116
!	!LO:N:vis=1	!	!
0D	[y0D	1A	1d
.	.	2B-	1r
.	.	[2d	.
=117.	=117-	=117.	=117.
1r	0D]yy	2d]	1f
.	.	2c	.
[1d	.	2B-	2g
.	.	4A	[2a
.	.	4G	.
=118.	=118-	=118.	=118.
2d]	0D	2F	2a]
2d	.	2B-	2g
1d	.	1A	2.f#i
.	.	.	4e
=119	=119	=119	=119
!	!LO:N:vis=1	!	!
1B-	[y0G	1G	2g
.	.	.	2.b-
2G	.	1r	.
.	.	.	4cc
[2B-	.	.	[2dd
=120.	=120-	=120.	=120.
4B-]	0G]yy	2G	2dd]
4c	.	.	.
1d	.	2.B-	2.g
.	.	4c	4a
[2G	.	[2d	[2b-
=121.	=121-	=121.	=121.
2G]	0G	2d]	2b-]
2.E-	.	4c	2g
.	.	4d	.
.	.	4e-i	1g
4F	.	4d	.
2G	.	4c	.
.	.	4B-	.
=122	=122-	=122	=122
1D	0F	2A	1r
.	.	2.d	.
2r	.	.	1a
.	.	4e	.
2A	.	2f	.
=123.	=123-	=123.	=123.
!	!LO:N:vis=1	!	!
2.G	[y0E	1g	2b-
.	.	.	2.cc
4A	.	.	.
2B-	.	2e	.
.	.	.	4b-
[2c	.	[2g	[2g
=124.	=124-	=124.	=124.
2c]	0E]yy	4g]	4g]
.	.	4f	4a
2B-	.	4e	1b-
.	.	4d	.
2.G	.	2.c#i	.
.	.	.	4a
4F	.	4Bni	4g
=125	=125-	=125	=125
!	!LO:N:vis=1.	!	!
1A	[y0D	1d	0f
2A	.	1r	.
[2A	.	.	.
=126.	=126-	=126.	=126.
2A]	0D_yy	1a	0r
2A	.	.	.
[1F	.	2a	.
.	.	[2a	.
=127.	=127-	=127.	=127.
2F]	0D]yy	2a]	1a
2F	.	2a	.
1F	.	1f	2a
.	.	.	[2a
=128	=128	=128	=128
!	!LO:N:vis=1.	!	!
1D	0r	1f	2a]
.	.	.	2a
1r	.	1f	1f
=129.	=129-	=129.	=129.
1D	0ryy	1d	0f
[1D	.	2r	.
.	.	[2a	.
=130.	=130-	=130.	=130.
2D]	0ryy	2a]	1d
2D	.	2g	.
1D	.	2f	2r
.	.	2d	[2a
=131	=131-	=131	=131
!	!LO:N:vis=1.	!	!
1C	0r	1e	2a]
.	.	.	2g
2D	.	2d	2f
2E	.	2B-	2g
=132.	=132-	=132.	=132.
2C	0ryy	2c	2e
1F	.	2d	1d
.	.	[1f	.
2D	.	.	[2dd
=133.	=133-	=133.	=133.
1D	0ryy	2f]	2dd]
.	.	2d	4cc
.	.	.	4b-
1A	.	1e	4cc
.	.	.	4b-
.	.	.	4a
.	.	.	4g
=134	=134-	=134	=134
!	!LO:N:vis=1.	!	!
1D	0r	1d	2f
.	.	.	1a
2r	.	1A	.
[2D	.	.	2g
=135.	=135-	=135.	=135.
2D]	0ryy	2r	1e
2C	.	2e	.
2.D	.	2.f	1d
4E	.	4g	.
=136.	=136-	=136.	=136.
2.F	0ryy	2a	2r
.	.	1a	2d
4G	.	.	.
2A	.	.	2f
2B-	.	2g	2g
=137	=137	=137	=137
!	!LO:N:vis=1.	!	!
2c	0r	2e	1a
2A	.	2f	.
2.B-	.	2.d	2.g
4A	.	4e	4f
=138.	=138-	=138.	=138.
1F	0ryy	2f	1.a
.	.	4e	.
.	.	4d	.
2r	.	2c	.
[2D	.	[2d	[2f
=139.	=139-	=139.	=139.
2D]	0ryy	2d]	2f]
2E	.	4c	2e
.	.	4B-	.
2F	.	2A	1d
4E	.	4G	.
4D	.	4F	.
=140	=140-	=140	=140
2.C	0r	1E	1e
4BB-	.	.	.
2D	.	2r	1f
2F	.	2A	.
=141.	=141-	=141.	=141.
2E	0dl	2B-	1.g
1C	.	2c	.
.	.	1d	.
2BBni	.	.	2d
=142.	=142-	=142.	=142.
2.C	0r	1.c	2.e
4D	.	.	4f
2E	.	.	1g
4D	.	2B-	.
4E	.	.	.
=143	=143-	=143	=143
!	!LO:N:vis=1.	!	!
2F	0r	2A	1a
2.D	.	2.d	.
.	.	.	1d
4E	.	4c	.
2F	.	2A	.
=144.	=144-	=144.	=144.
2G	0ryy	2B-	2r
2C	.	2c	1e
2r	.	1G	.
[2G	.	.	2c
=145.	=145-	=145.	=145.
4G]	0ryy	2r	2.e
4F	.	.	.
4E	.	1.c	.
4D	.	.	4f
2.C	.	.	2g
.	.	.	4f
4BB-	.	.	4e
=146	=146	=146	=146
!	!LO:N:vis=1.	!	!
2.D	0r	1A	2.f
4E	.	.	4g
2F	.	2r	1a
2G	.	2d	.
=147.	=147-	=147.	=147.
1A	0ryy	2.f	0d
.	.	4g	.
1D	.	1a	.
=148.	=148-	=148.	=148.
1r	0ryy	[0dl	[0al
1F	.	.	.
=149	=149-	=149	=149
0F	0r	0d_	0a_
=150.	=150-	=150.	=150.
0Al	0r	0d]	0a]
*	*rscale:1	*	*
!!LO:LB:i:g=z
=151||	=151||	=151||	=151||
*>C	*>C	*>C	*>C
*clefF4	*clefGv2	*clefGv2	*clefG2
*k[b-]	*k[b-]	*k[b-]	*k[b-]
*M4/1	*M6/1	*M4/1	*M4/1
*met(C|r)	*met(C.)	*met(C|r)	*met(C|r)
*MM448	*MM448	*MM448	*MM448
!!section: Confiteor unum baptisma
!!!OMD: Confiteor unum baptisma
*	*rscale:3/4	*	*
0G	3%8.r	0G	0g
1D	.	1F	1a
1E	.	1G	1g
=152	=152	=152	=152
0F	3%8.r	0A	1.cc
.	.	.	2b-
0G	.	1G	1b-
.	.	1E	1g
=153	=153	=153	=153
0D	3%8.r	0F	1.a
.	.	.	4g
.	.	.	4a
0d	.	0G	2.b-
.	.	.	4cc
.	.	.	2b-
.	.	.	4a
.	.	.	4g
=154	=154	=154	=154
1r	3%4D	[0d	1f
1A	.	.	1r
.	3%2D	.	.
1B-	3%4G	0d]	0b-
1B-	.	.	.
.	3%2G	.	.
=155	=155	=155	=155
1c	3%2F	1r	1a
.	3%4E	.	.
1c	.	1e	1g
0d	3%4.D	1f	1f
.	.	2d	1b-
.	.	2f	.
=156	=156	=156	=156
2c	3%4.r	2e	2a
2A	.	2c	1a
1B-	.	2.d	.
.	.	.	2g
.	.	4e	.
1A	3%2A	2f	1f
.	.	4e	.
.	3%2A	.	.
.	.	4d	.
1r	.	2.c#i	1e
.	3%2A	.	.
.	.	4Bni	.
=157	=157	=157	=157
1A	3%4.D	1d	3%2dV
.	.	.	3e
1F	.	2r	3f
.	.	.	3g
.	.	1d	.
.	.	.	3aZ
1G	3%4.r	.	3b-V
.	.	.	3a
.	.	2B-	.
.	.	.	3%2g
1D	.	1A	.
.	.	.	3f#i
.	.	.	3eZ
=158	=158	=158	=158
3%2.GV	3%4d	0G	1g
3A	.	.	1r
3%2B-Z	3%2d	.	.
3%2.AV	3%4c	1r	0e
3G	.	1G	.
3%2EZ	3%2c	.	.
=159	=159	=159	=159
0D	3%4d	1A	1f
.	.	1B-	1f
.	3%2d	.	.
1r	3%4.A	2.c	1e
.	.	4d	.
1r	.	1e	1c
=160	=160	=160	=160
1D	3%4.r	2f	2d
.	.	1d	2f
1A	.	.	1e
.	.	2c	.
2B-	3%4d	2d	1d
4A	.	4c	.
4G	.	4B-	.
2F	.	2A	1f
.	3%2d	.	.
2G	.	2B-	.
=161	=161	=161	=161
2A	3%4c	2c	1eV
4G	.	4B-	.
4F	.	4A	.
1E	.	2.G	3f
.	3%2c	.	3%2gZ
.	.	4F	.
3%2DV	3%4d	1A	3%2fV
3%2F	.	.	3%2a
.	.	1r	.
3%2GZ	3%2d	.	3%2b-Z
=162	=162	=162	=162
3AV	3%4.A	1r	3ccV
3%2F	.	.	3%2aZ
3G	.	1d	3%2gV
3%2DZ	.	.	.
.	.	.	3f#iZ
3%2.GV	3%2r	3%2.dV	3%2.gV
.	3%2r	.	.
3F	.	3e	3a
3%2DZ	3%2d	3%2fZ	3%2b-Z
=163	=163	=163	=163
3%4CV	3%4e	3%4gV	3%4ccV
3%2DZ	3%2d	[3%2fZ	3b-
.	.	.	3aZ
3%2FV	3%2c	3%2f]V	3%2.aV
3%4GZ	3%4B-	1d	.
.	.	.	3g
.	.	.	3g
.	.	3dZ	3fZ
=164	=164	=164	=164
0D	3%4.A	3%2dV	1a
.	.	3%2.f	.
.	.	.	2r
.	.	.	1a
.	.	3eZ	.
1C	3%4.r	1e	.
.	.	.	2g
2D	.	2d	2f
2E	.	4c	2g
.	.	4B-	.
=165	=165	=165	=165
2.F	3%8.r	2A	2a
.	.	2.a	2.f
4G	.	.	.
2.A	.	.	.
.	.	4g	4e
.	.	2f	2.a
4B-	.	.	.
2c	.	2e	.
.	.	.	4g
2d	.	1d	2f
1A	.	.	1e
.	.	2c#i	.
=166	=166	=166	=166
1r	3%4D	3%2dV	3%2.dV
.	.	3B-	.
1d	.	3G	3%2g
.	3%2D	3%2AZ	.
.	.	.	3f#iZ
3%2.B-V	3%4G	3%2GV	3%2.gV
.	.	3%2.d	.
3G	.	.	3a
3%2GZ	3%2G	.	3%2b-Z
.	.	3eZ	.
=167	=167	=167	=167
3%2DV	3%2F	3fV	3%2aV
.	.	3%2d	.
3E	3%4E	.	3g
3F	.	3e	3%2g
3%2GZ	.	3c#i	.
.	.	3BniZ	3eZ
3%2AV	3%4.Dl	3%2dV	3%2.fV
3%2B-	.	3%2r	.
.	.	.	3g
3%2AZ	.	3%2fZ	3%2aZ
=168	=168	=168	=168
3%2GV	3%8.r	3%2gV	3%2b-V
3%2D	.	3f	3a
.	.	3%2d	3%2b-
3%2EZ	.	.	.
.	.	3cZ	3gZ
3DV	.	3dV	3fV
3.F	.	2c	3.a
6G	.	6G	6g
3E	.	3B-	3%2g
3%2DZ	.	3%2AZ	.
.	.	.	3f#iZ
=169	=169	=169	=169
[0Gl	3%8.r	[0Gl	[0gl
0G]	.	0G]	0g]
*	*rscale:1	*	*
==	==	==	==
*-	*-	*-	*-
!!!RDF**kern: l=long note in original notation
!!!RDF**kern: i=editorial accidental
!!!RDF**kern: V=start of tuplet marker
!!!RDF**kern: Z=end of tuplet marker
!!!ENC:	Megan K. Eagen 2013/12/19; Rodin 2/22/2014
!!!END:	2013/12/19/
!!!EED:	Jesse Rodin
!!!EEV:	2014/03/09/
!!!ONB:	Translated from MusicXML and edited on 2014/03/09/ by Craig Sapp
!!muse2ps: T^@{OPR}^u^@{ONM}{. }@{OTL}^C^@{COM}^i2I150v85,85,85,150Q8c140
